svgs/sharp-light/compress-wide.svg

<svg xmlns="http://www.w3.org/2000/svg" viewBox="0 0 512 512"><!--! Font Awesome Pro 6.6.0 by @fontawesome - https://fontawesome.com License - https://fontawesome.com/license (Commercial License) Copyright 2024 Fonticons, Inc. --><path d="M128 80l0-16 32 0 0 16 0 128 0 16-16 0L16 224 0 224l0-32 16 0 112 0 0-112zm16 208l16 0 0 16 0 128 0 16-32 0 0-16 0-112L16 320 0 320l0-32 16 0 128 0zM352 80l0-16 32 0 0 16 0 112 112 0 16 0 0 32-16 0-128 0-16 0 0-16 0-128zM496 288l16 0 0 32-16 0-112 0 0 112 0 16-32 0 0-16 0-128 0-16 16 0 128 0z"/></svg>

<svg xmlns="http://www.w3.org/2000/svg" viewBox="0 0 512 512"><!--! Font Awesome Pro 6.5.2 by @fontawesome - https://fontawesome.com License - https://fontawesome.com/license (Commercial License) Copyright 2024 Fonticons, Inc. --><path d="M128 80V64h32V80 208v16H144 16 0V192H16 128V80zm16 208h16v16V432v16H128V432 320H16 0V288H16 144zM352 80V64h32V80 192H496h16v32H496 368 352V208 80zM496 288h16v32H496 384V432v16H352V432 304 288h16H496z"/></svg>
